src/assets/images/agenda-shape-1.svg

<svg height="364" viewBox="0 0 372 364" width="372" xmlns="http://www.w3.org/2000/svg"><path d="m371.366831 184.244962c1.961456 32.382172-.442909 58.98268-9.908516 84.526455-10.465317 28.543925-29.409186 50.249454-55.907824 66.100441-21.867071 13.033035-45.493125 21.341139-70.802234 25.786703-25.752019 4.664199-51.339529 4.737077-77.002967-1.639757-21.284961-5.453712-40.456611-15.000743-58.1223701-27.632948-27.0936204-19.142192-50.7374461-42.415025-69.9923429-68.894102-12.5280093-17.30855-22.48714399-35.698125-27.11871107-56.322629-4.55563975-19.762112-2.7207293-39.050517 3.93556656-57.986678 6.58036851-18.729673 16.76728521-35.600954 28.80176691-51.4033567 18.6021956-24.0619209 39.9883933-45.6945717 64.9052116-63.8290734 17.77965-13.0330344 36.938646-23.47889607 58.742444-29.2727054 20.550997-5.36868705 40.950139-4.70063775 61.425209.97170807 22.17078 6.09746813 41.962504 16.78625683 60.450809 29.91646203 21.259652 15.2072311 39.950429 32.9287569 55.338368 53.881212 15.090686 20.6430894 25.560998 44.0637364 30.750568 68.7847844 2.075347 10.895277 3.467349 21.559773 4.505022 27.013484z" fill="#fc6e69" fill-rule="evenodd" transform="matrix(1 0 0 -1 0 364)"/></svg>

<?xml version="1.0" encoding="UTF-8"?>
<svg width="372px" height="364px" viewBox="0 0 372 364" version="1.1" xmlns="http://www.w3.org/2000/svg" xmlns:xlink="http://www.w3.org/1999/xlink">
    <!-- Generator: Sketch 51.2 (57519) - http://www.bohemiancoding.com/sketch -->
    <title>Shape Copy</title>
    <desc>Created with Sketch.</desc>
    <defs></defs>
    <g id="↳-Registration-(v2.2.1)" stroke="none" stroke-width="1" fill="none" fill-rule="evenodd">
        <g id="Landing-Page" transform="translate(-176.000000, -2280.000000)" fill="#FC6E69">
            <g id="Agenda" transform="translate(176.000000, 2280.000000)">
                <path d="M371.366831,184.244962 C373.328287,216.627134 370.923922,243.227642 361.458315,268.771417 C350.992998,297.315342 332.049129,319.020871 305.550491,334.871858 C283.68342,347.904893 260.057366,356.212997 234.748257,360.658561 C208.996238,365.32276 183.408728,365.395638 157.74529,359.018804 C136.460329,353.565092 117.288679,344.018061 99.6229199,331.385856 C72.5292995,312.243664 48.8854738,288.970831 29.630577,262.491754 C17.1025677,245.183204 7.14343301,226.793629 2.51186593,206.169125 C-2.04377382,186.407013 -0.208863365,167.118608 6.44743249,148.182447 C13.027801,129.452774 23.2147177,112.581493 35.2491994,96.7790903 C53.851395,72.7171694 75.2375927,51.0845186 100.154411,32.9500169 C117.934061,19.9169825 137.093057,9.47112083 158.896855,3.6773115 C179.447852,-1.69137555 199.846994,-1.02332625 220.322064,4.64901957 C242.492844,10.7464877 262.284568,21.4352764 280.772873,34.5654816 C302.032525,49.7727127 320.723302,67.4942385 336.111241,88.4466936 C351.201927,109.089783 361.672239,132.51043 366.861809,157.231478 C368.937156,168.126755 370.329158,178.791251 371.366831,184.244962 Z" id="Shape-Copy" transform="translate(186.000000, 182.000000) scale(1, -1) translate(-186.000000, -182.000000) "></path>
            </g>
        </g>
    </g>
</svg>
